X:109
T:Cronin's Slippery Jig
R:slip jig
D:Brendan Begley & Caoimh\'in \'O Raghallaigh: A Moment of Madness
Z:id:hn-slipjig-109
M:9/8
L:1/8
K:Em
E2B BGE BGE | FDF AFd AFD | EFG ABc BGE | eBB AGF E3 :|
eBe geg bge | dAd fdf afd | eBe geg bge | gfe Be^d e3 |
eBe g2a bge | dAd fdf afd | e/f/ge edB BAG | B/c/dB AGF E2B, ||

